assets/icons/librescoot-bluetooth-error.svg

<svg xmlns="http://www.w3.org/2000/svg" width="144" height="144" viewBox="0 0 144 144"><path fill="#fff" d="m120.9 135.601-27.2998-27.3-21.6 21.6h-4.5V82.8006l-29.1 29.1004-6.3001-6.3 29.4-29.4004-53.1-53.1 6.3-6.3L127.2 129.301zm-44.3998-23.1 10.5-10.5-10.5-10.5004zm3.9-42.6004-6.3-6.45 17.4-17.25-15-14.7v34.35l-9-9v-42.75h4.5l32.0998 32.1z"/></svg>

<svg width="144" height="144" viewBox="0 0 144 144" xmlns="http://www.w3.org/2000/svg">
<path d="M120.9 135.601L93.6002 108.301L72.0002 129.901H67.5002V82.8006L38.4002 111.901L32.1001 105.601L61.5001 76.2006L8.40015 23.1006L14.7001 16.8006L127.2 129.301L120.9 135.601ZM76.5002 112.501L87.0002 102.001L76.5002 91.5006V112.501ZM80.4002 69.9006L74.1002 63.4506L91.5002 46.2006L76.5002 31.5006V65.8506L67.5002 56.8506V14.1006H72.0002L104.1 46.2006L80.4002 69.9006Z" fill="white"/>
</svg>
